src/assets/icons/sort-alt-slash.svg

<svg width="14" height="14" viewBox="0 0 14 14" fill="none" xmlns="http://www.w3.org/2000/svg">
<g id="sort-alt-slash">
<g clip-path="url(#clip0_156_4665)">
<path id="Union" fill-rule="evenodd" clip-rule="evenodd" d="M3.38708 0C3.47893 0 3.56652 0.0182805 3.64639 0.0514017C3.72629 0.0844596 3.80114 0.133463 3.86609 0.198412L6.12416 2.45648C6.3887 2.72102 6.3887 3.14994 6.12416 3.41449C5.85961 3.67904 5.43069 3.67904 5.16614 3.41449L4.0645 2.31285V7.45161C4.0645 7.82574 3.76121 8.12903 3.38708 8.12903C3.01295 8.12903 2.70966 7.82574 2.70966 7.45161V2.31285L1.60803 3.41449C1.34348 3.67904 0.914559 3.67904 0.650011 3.41449C0.385462 3.14994 0.385462 2.72102 0.650011 2.45648L2.90808 0.198412C2.97302 0.133463 3.04788 0.0844596 3.12778 0.0514017C3.20765 0.0182805 3.29523 0 3.38708 0ZM2.70966 12.2483L1.60803 13.35C1.34348 13.6145 0.914559 13.6145 0.650011 13.35C0.385462 13.0854 0.385462 12.6565 0.650011 12.392L9.93547 3.1065V0.677419C9.93547 0.303291 10.2388 0 10.6129 0C10.987 0 11.2903 0.303291 11.2903 0.677419V1.75166L12.3919 0.650024C12.6565 0.385476 13.0854 0.385476 13.35 0.650024C13.6145 0.914573 13.6145 1.34349 13.35 1.60804L4.0645 10.8935V13.3226C4.0645 13.6967 3.76121 14 3.38708 14C3.01295 14 2.70966 13.6967 2.70966 13.3226V12.2483ZM7.87582 10.5855C8.14037 10.321 8.56928 10.321 8.83383 10.5855L9.93547 11.6871V6.54839C9.93547 6.17426 10.2388 5.87097 10.6129 5.87097C10.987 5.87097 11.2903 6.17426 11.2903 6.54839V11.6871L12.3919 10.5855C12.6565 10.321 13.0854 10.321 13.35 10.5855C13.6145 10.8501 13.6145 11.279 13.35 11.5435L11.0919 13.8016C11.0269 13.8665 10.9521 13.9155 10.8722 13.9486C10.7923 13.9817 10.7047 14 10.6129 14C10.521 14 10.4335 13.9817 10.3536 13.9486C10.2737 13.9155 10.1988 13.8665 10.1339 13.8016L7.87582 11.5435C7.61127 11.279 7.61127 10.8501 7.87582 10.5855Z" fill="black"/>
</g>
</g>
<defs>
<clipPath id="clip0_156_4665">
<rect width="14" height="14" fill="white"/>
</clipPath>
</defs>
</svg>

<svg xmlns="http://www.w3.org/2000/svg" fill="none" viewBox="0 0 14 14"><g clip-path="url(#a)"><path fill="#000" fill-rule="evenodd" d="M3.387 0a.68.68 0 0 1 .48.198l2.257 2.258a.677.677 0 0 1-.958.958L4.064 2.313v5.139a.677.677 0 1 1-1.354 0v-5.14L1.608 3.415a.677.677 0 0 1-.958-.958L2.908.198A.68.68 0 0 1 3.388 0M2.71 12.248 1.608 13.35a.678.678 0 0 1-.958-.958l9.285-9.285V.677a.677.677 0 0 1 1.355 0v1.075L12.392.65a.678.678 0 0 1 .958.958l-9.285 9.286v2.429a.677.677 0 0 1-1.355 0zm5.166-1.662a.68.68 0 0 1 .958 0l1.101 1.101V6.548a.677.677 0 0 1 1.355 0v5.14l1.102-1.103a.678.678 0 0 1 .958.958l-2.258 2.259a.677.677 0 0 1-.958 0l-2.258-2.258a.677.677 0 0 1 0-.959" clip-rule="evenodd"/></g><defs><clipPath id="a"><path fill="#fff" d="M0 0h14v14H0z"/></clipPath></defs></svg>
